X:72a
T: A dínomnak, a dánomnak
K: F
M: 4/4
L: 1/4
g2 f2 | g2 a a | 
g2f2 | g/g/f/_e/ d d | 
c2 B2 | c2 d d | 
c2 B2 | c/c/B/A/ G G | 

